X: 53
T:Quick Step in the Battle of Prague. JC.051
M:2/4
L:1/8
Q:200
S:John Clare,Poet,Helpston. (1793-1864)
R:March
O:England
A:Northamptonshire
N:
Z:vmp.P. Headford
K:D
"Time Sig 6/8 in MS"a>gff|f>edd|edec|d/e/ f/e/ d/e/f/g/|!
a>gff|f>edd|eded|d2-d2:|!
|:e2f2|gg/f/ ee|f2g2|aa/g/ fa|!
afgf|afgf|ab/a/ gf|f2e2:|]
